packages/design-assets/icons/16px/Book.svg

<?xml version="1.0" encoding="UTF-8"?>
<svg width="16px" height="16px" viewBox="0 0 16 16" version="1.1" xmlns="http://www.w3.org/2000/svg" xmlns:xlink="http://www.w3.org/1999/xlink">
    <!-- Generator: Sketch 54.1 (76490) - https://sketchapp.com -->
    <title>Icons/16px/Book</title>
    <desc>Created with Sketch.</desc>
    <g id="Icons/16px/Book" stroke="none" stroke-width="1" fill="none" fill-rule="evenodd">
        <path d="M10.5,4 L7.5,4 C7.224,4 7,4.224 7,4.5 L7,5.5 C7,5.776 7.224,6 7.5,6 L10.5,6 C10.776,6 11,5.776 11,5.5 L11,4.5 C11,4.224 10.776,4 10.5,4 L10.5,4 Z M13,9.531 C13,9.807 12.776,10.031 12.5,10.031 L5.5,10.031 C5.224,10.031 5,9.807 5,9.531 L5,2.5 C5,2.224 5.224,2 5.5,2 L12.5,2 C12.776,2 13,2.224 13,2.5 L13,9.531 Z M13,13.5 C13,13.776 12.776,14 12.5,14 L5,14 L3.99,14 C3.443,14 3,13.557 3,13.01 L3,12.99 C3,12.443 3.443,12 3.99,12 L5,12 L12.5,12 C12.776,12 13,12.224 13,12.5 L13,13.5 Z M14,0 L13,0 L5,0 L3,0 C1.895,0 1,0.895 1,2 L1,14 C1,15.104 1.895,16 3,16 L5,16 L14,16 C14.552,16 15,15.552 15,15 L15,14.5 L15,14 L15,12 L15,10.031 L15,2 L15,1 C15,0.448 14.552,0 14,0 L14,0 Z" id="i-16-book" fill="#818F99"></path>
    </g>
</svg>

<svg width="16" height="16" xmlns="http://www.w3.org/2000/svg"><path d="M10.5 4h-3a.5.5 0 0 0-.5.5v1a.5.5 0 0 0 .5.5h3a.5.5 0 0 0 .5-.5v-1a.5.5 0 0 0-.5-.5zM13 9.531a.5.5 0 0 1-.5.5h-7a.5.5 0 0 1-.5-.5V2.5a.5.5 0 0 1 .5-.5h7a.5.5 0 0 1 .5.5v7.031zm0 3.969a.5.5 0 0 1-.5.5H3.99a.99.99 0 0 1-.99-.99v-.02a.99.99 0 0 1 .99-.99h8.51a.5.5 0 0 1 .5.5v1zM14 0H3a2 2 0 0 0-2 2v12a2 2 0 0 0 2 2h11a1 1 0 0 0 1-1V1a1 1 0 0 0-1-1z" fill="#818F99" fill-rule="evenodd"/></svg>
